;FLAVOR:Marlin
;TIME:1138
;Filament used: 0.125306m
;Layer height: 0.1
;MINX:85.568
;MINY:85.565
;MINZ:0.1
;MAXX:137.432
;MAXY:137.432
;MAXZ:5.6
;Generated with Cura_SteamEngine 4.3.0
M140 S60
M105
M190 S60
M104 S190
M105
M109 S190
M82 ;absolute extrusion mode
G21 ;metric values
M92 E285; set Axis Steps-per-unit
M500 ; saved
M501 ; loaded
G90 ;absolute positioning
M82 ;set extruder to absolute mode
M107 ;start with the fan off
G28 Z0 ;move Z to bottom endstops
G28 X0 Y0 ;move X/Y to endstops
G1 X20 Y4 F4000 ;move X/Y to front of printer
G1 Z15.1 F9000 ;move the platform to 15mm
G1 Z15.0 ;set position
G92 E0 ;zero the extruded length
G1 F200 E25 ;extrude 25 mm of feed stock
G92 E0 ;zero the extruded length again
G1 F9000 ;Put printing message on LCD screen
M117; Printing...
G92 E0
G92 E0
;LAYER_COUNT:56
;LAYER:0
M107
;MESH:Wheel_Knob_Cap.stl
G0 F3600 X99.902 Y100.376 Z0.1
;TYPE:WALL-OUTER
G1 F1800 X100.454 Y99.827 E0.00324
G1 X101.047 Y99.293 E0.00655
G1 X101.651 Y98.8 E0.0098
G1 X102.286 Y98.332 E0.01308
G1 X102.951 Y97.891 E0.01639
G1 X103.621 Y97.493 E0.01963
G1 X104.327 Y97.119 E0.02295
G1 X105.032 Y96.789 E0.02619
G1 X105.762 Y96.489 E0.02947
G1 X106.51 Y96.224 E0.03277
G1 X107.271 Y95.995 E0.03608
G1 X108.036 Y95.805 E0.03935
G1 X108.801 Y95.657 E0.04259
G1 X109.59 Y95.542 E0.04591
G1 X110.366 Y95.47 E0.04915
G1 X111.163 Y95.433 E0.05246
G1 X111.944 Y95.436 E0.05571
G1 X112.741 Y95.477 E0.05903
G1 X113.516 Y95.556 E0.06227
G1 X114.306 Y95.675 E0.06559
G1 X115.073 Y95.831 E0.06884
G1 X115.843 Y96.027 E0.07215
G1 X116.591 Y96.257 E0.0754
G1 X117.329 Y96.524 E0.07866
G1 X118.061 Y96.83 E0.08196
G1 X118.778 Y97.172 E0.08526
G1 X119.472 Y97.545 E0.08854
G1 X120.139 Y97.948 E0.09178
G1 X120.802 Y98.394 E0.0951
G1 X121.425 Y98.86 E0.09834
G1 X122.034 Y99.364 E0.10162
G1 X122.624 Y99.902 E0.10494
G1 X123.173 Y100.454 E0.10818
G1 X123.707 Y101.047 E0.1115
G1 X124.2 Y101.651 E0.11474
G1 X124.668 Y102.286 E0.11802
G1 X125.109 Y102.951 E0.12134
G1 X125.507 Y103.621 E0.12458
G1 X125.881 Y104.327 E0.1279
G1 X126.211 Y105.032 E0.13113
G1 X126.511 Y105.762 E0.13441
G1 X126.775 Y106.506 E0.1377
G1 X127.005 Y107.271 E0.14102
G1 X127.193 Y108.026 E0.14425
G1 X127.343 Y108.801 E0.14753
G1 X127.457 Y109.581 E0.15081
G1 X127.53 Y110.366 E0.15409
G1 X127.567 Y111.154 E0.15737
G1 X127.564 Y111.944 E0.16065
G1 X127.524 Y112.731 E0.16393
G1 X127.444 Y113.516 E0.16721
G1 X127.327 Y114.296 E0.17049
G1 X127.17 Y115.07 E0.17377
G1 X126.977 Y115.833 E0.17705
G1 X126.745 Y116.587 E0.18033
G1 X126.473 Y117.339 E0.18365
G1 X126.173 Y118.057 E0.18688
G1 X125.828 Y118.778 E0.19021
G1 X125.454 Y119.472 E0.19349
G1 X125.052 Y120.139 E0.19672
G1 X124.606 Y120.802 E0.20005
G1 X124.134 Y121.433 E0.20332
G1 X123.637 Y122.034 E0.20656
G1 X123.098 Y122.624 E0.20989
G1 X122.546 Y123.173 E0.21312
G1 X121.953 Y123.707 E0.21644
G1 X121.349 Y124.2 E0.21968
G1 X120.714 Y124.668 E0.22296
G1 X120.049 Y125.109 E0.22628
G1 X119.379 Y125.507 E0.22952
G1 X118.673 Y125.881 E0.23284
G1 X117.968 Y126.211 E0.23608
G1 X117.238 Y126.511 E0.23936
G1 X116.49 Y126.776 E0.24266
G1 X115.729 Y127.005 E0.24596
G1 X114.965 Y127.195 E0.24923
G1 X114.199 Y127.343 E0.25248
G1 X113.41 Y127.458 E0.25579
G1 X112.634 Y127.531 E0.25903
G1 X111.837 Y127.567 E0.26235
G1 X111.056 Y127.564 E0.2656
G1 X110.259 Y127.523 E0.26892
G1 X109.484 Y127.445 E0.27215
G1 X108.694 Y127.325 E0.27548
G1 X107.927 Y127.169 E0.27873
G1 X107.157 Y126.973 E0.28203
G1 X106.409 Y126.743 E0.28529
G1 X105.671 Y126.476 E0.28855
G1 X104.939 Y126.17 E0.29185
G1 X104.222 Y125.828 E0.29515
G1 X103.528 Y125.455 E0.29843
G1 X102.861 Y125.052 E0.30167
G1 X102.198 Y124.606 E0.30499
G1 X101.567 Y124.134 E0.30826
G1 X100.966 Y123.637 E0.31151
G1 X100.376 Y123.098 E0.31483
G1 X99.827 Y122.546 E0.31807
G1 X99.293 Y121.953 E0.32138
G1 X98.8 Y121.349 E0.32463
G1 X98.332 Y120.714 E0.32791
G1 X97.891 Y120.049 E0.33122
G1 X97.493 Y119.379 E0.33446
G1 X97.119 Y118.673 E0.33778
G1 X96.785 Y117.959 E0.34106
G1 X96.489 Y117.238 E0.3443
G1 X96.222 Y116.485 E0.34762
G1 X95.995 Y115.729 E0.3509
G1 X95.805 Y114.964 E0.35418
G1 X95.657 Y114.199 E0.35742
G1 X95.542 Y113.409 E0.36074
G1 X95.47 Y112.634 E0.36398
G1 X95.433 Y111.846 E0.36726
G1 X95.436 Y111.056 E0.37054
G1 X95.476 Y110.269 E0.37382
G1 X95.555 Y109.484 E0.3771
G1 X95.673 Y108.704 E0.38038
G1 X95.83 Y107.93 E0.38366
G1 X96.024 Y107.167 E0.38693
G1 X96.255 Y106.413 E0.39021
G1 X96.524 Y105.671 E0.39349
G1 X96.828 Y104.943 E0.39677
G1 X97.172 Y104.222 E0.40009
G1 X97.546 Y103.528 E0.40337
G1 X97.948 Y102.861 E0.40661
G1 X98.394 Y102.198 E0.40993
G1 X98.86 Y101.575 E0.41317
G1 X99.364 Y100.966 E0.41645
G1 X99.902 Y100.376 E0.41977
G0 F3600 X100.043 Y100.235
G0 X103.32 Y103.559
G1 F1800 X102.951 Y103.959 E0.42204
G1 X102.599 Y104.378 E0.42431
G1 X102.271 Y104.809 E0.42656
G1 X101.959 Y105.261 E0.42885
G1 X101.663 Y105.738 E0.43118
G1 X101.395 Y106.224 E0.43349
G1 X101.142 Y106.737 E0.43587
G1 X100.921 Y107.252 E0.43819
G1 X100.725 Y107.78 E0.44054
G1 X100.547 Y108.344 E0.443
G1 X100.399 Y108.909 E0.44542
G1 X100.282 Y109.476 E0.44783
G1 X100.194 Y110.05 E0.45024
G1 X100.135 Y110.619 E0.45262
G1 X100.104 Y111.212 E0.45509
G1 X100.103 Y111.793 E0.45751
G1 X100.132 Y112.37 E0.45991
G1 X100.192 Y112.943 E0.4623
G1 X100.277 Y113.509 E0.46468
G1 X100.393 Y114.075 E0.46709
G1 X100.54 Y114.639 E0.46951
G1 X100.711 Y115.185 E0.47189
G1 X100.903 Y115.705 E0.47419
G1 X101.127 Y116.232 E0.47657
G1 X101.365 Y116.721 E0.47883
G1 X101.631 Y117.208 E0.48114
G1 X101.906 Y117.659 E0.48334
G1 X102.226 Y118.131 E0.48571
G1 X102.554 Y118.567 E0.48798
G1 X103.171 Y119.283 E0.49191
G1 X103.559 Y119.68 E0.49421
G1 X103.959 Y120.049 E0.49648
G1 X104.378 Y120.401 E0.49875
G1 X104.809 Y120.729 E0.501
G1 X105.261 Y121.041 E0.50329
G1 X105.738 Y121.337 E0.50562
G1 X106.224 Y121.605 E0.50793
G1 X106.737 Y121.858 E0.51031
G1 X107.252 Y122.079 E0.51264
G1 X107.78 Y122.275 E0.51498
G1 X108.344 Y122.453 E0.51744
G1 X108.909 Y122.601 E0.51987
G1 X109.474 Y122.718 E0.52226
G1 X110.05 Y122.806 E0.52469
G1 X110.619 Y122.865 E0.52706
G1 X111.212 Y122.896 E0.52953
G1 X111.792 Y122.897 E0.53194
G1 X112.37 Y122.868 E0.53435
G1 X112.943 Y122.808 E0.53675
G1 X113.509 Y122.723 E0.53913
G1 X114.075 Y122.607 E0.54153
G1 X114.639 Y122.46 E0.54395
G1 X115.185 Y122.289 E0.54633
G1 X115.705 Y122.097 E0.54863
G1 X116.231 Y121.873 E0.55101
G1 X116.721 Y121.635 E0.55328
G1 X117.208 Y121.369 E0.55558
G1 X117.658 Y121.094 E0.55778
G1 X118.131 Y120.774 E0.56015
G1 X118.567 Y120.446 E0.56242
G1 X119.283 Y119.829 E0.56635
G1 X119.679 Y119.441 E0.56865
G1 X120.049 Y119.041 E0.57092
G1 X120.401 Y118.622 E0.57319
G1 X120.729 Y118.191 E0.57545
G1 X121.042 Y117.738 E0.57773
G1 X121.336 Y117.262 E0.58006
G1 X121.605 Y116.776 E0.58237
G1 X121.857 Y116.263 E0.58475
G1 X122.079 Y115.749 E0.58707
G1 X122.275 Y115.22 E0.58942
G1 X122.453 Y114.656 E0.59188
G1 X122.601 Y114.091 E0.59431
G1 X122.718 Y113.526 E0.59671
G1 X122.806 Y112.949 E0.59913
G1 X122.864 Y112.381 E0.60151
G1 X122.896 Y111.788 E0.60397
G1 X122.897 Y111.208 E0.60639
G1 X122.867 Y110.63 E0.60879
G1 X122.808 Y110.057 E0.61119
G1 X122.722 Y109.491 E0.61357
G1 X122.606 Y108.925 E0.61597
G1 X122.459 Y108.361 E0.61839
G1 X122.288 Y107.816 E0.62077
G1 X122.097 Y107.295 E0.62307
G1 X121.873 Y106.769 E0.62545
G1 X121.635 Y106.279 E0.62772
G1 X121.369 Y105.792 E0.63002
G1 X121.093 Y105.342 E0.63222
G1 X120.773 Y104.869 E0.63459
G1 X120.446 Y104.434 E0.63685
G1 X119.829 Y103.717 E0.64079
G1 X119.441 Y103.321 E0.64309
G1 X119.041 Y102.951 E0.64536
G1 X118.622 Y102.599 E0.64763
G1 X118.191 Y102.271 E0.64988
G1 X117.738 Y101.959 E0.65217
G1 X117.267 Y101.667 E0.65448
G1 X116.776 Y101.395 E0.65681
G1 X116.272 Y101.148 E0.65914
G1 X115.749 Y100.921 E0.66151
G1 X115.209 Y100.721 E0.66391
G1 X114.656 Y100.547 E0.66632
G1 X114.096 Y100.4 E0.66872
G1 X113.524 Y100.282 E0.67115
G1 X112.949 Y100.194 E0.67357
G1 X112.381 Y100.136 E0.67594
G1 X111.788 Y100.104 E0.67841
G1 X111.207 Y100.103 E0.68083
G1 X110.63 Y100.133 E0.68323
G1 X110.057 Y100.192 E0.68563
G1 X109.491 Y100.278 E0.68801
G1 X108.925 Y100.394 E0.69041
G1 X108.361 Y100.541 E0.69283
G1 X107.815 Y100.712 E0.69521
G1 X107.285 Y100.907 E0.69756
G1 X106.779 Y101.123 E0.69985
G1 X106.28 Y101.365 E0.70215
G1 X105.799 Y101.627 E0.70443
G1 X105.335 Y101.911 E0.70669
G1 X104.879 Y102.22 E0.70898
G1 X104.434 Y102.554 E0.71129
G1 X103.717 Y103.171 E0.71523
G1 X103.32 Y103.559 E0.71753
G0 F3600 X103.185 Y103.706
G0 X103.255 Y103.496
;TYPE:SKIN
G1 F1800 X102.883 Y103.9 E0.71982
G1 X102.529 Y104.322 E0.72211
G1 X102.199 Y104.757 E0.72438
G1 X101.884 Y105.212 E0.72668
G1 X101.585 Y105.693 E0.72903
G1 X101.316 Y106.182 E0.73135
G1 X101.061 Y106.699 E0.73375
G1 X100.838 Y107.218 E0.7361
G1 X100.64 Y107.751 E0.73846
G1 X100.461 Y108.319 E0.74094
G1 X100.311 Y108.889 E0.74339
G1 X100.194 Y109.46 E0.74581
G1 X100.104 Y110.039 E0.74825
G1 X100.045 Y110.612 E0.75064
G1 X100.014 Y111.21 E0.75313
G1 X100.013 Y111.795 E0.75556
G1 X100.042 Y112.377 E0.75799
G1 X100.102 Y112.954 E0.7604
G1 X100.189 Y113.525 E0.7628
G1 X100.305 Y114.095 E0.76522
G1 X100.454 Y114.664 E0.76766
G1 X100.626 Y115.214 E0.77006
G1 X100.82 Y115.738 E0.77238
G1 X101.045 Y116.27 E0.77478
G1 X101.285 Y116.762 E0.77706
G1 X101.553 Y117.253 E0.77939
G1 X101.83 Y117.708 E0.7816
G1 X102.152 Y118.183 E0.78399
G1 X102.484 Y118.623 E0.78628
G1 X103.105 Y119.344 E0.79023
G1 X103.496 Y119.745 E0.79256
G1 X103.9 Y120.117 E0.79485
G1 X104.322 Y120.471 E0.79714
G1 X104.757 Y120.801 E0.79941
G1 X105.212 Y121.116 E0.80171
G1 X105.693 Y121.415 E0.80406
G1 X106.182 Y121.684 E0.80638
G1 X106.699 Y121.939 E0.80878
G1 X107.218 Y122.162 E0.81113
G1 X107.751 Y122.36 E0.81349
G1 X108.319 Y122.539 E0.81597
G1 X108.889 Y122.689 E0.81842
G1 X109.458 Y122.806 E0.82083
G1 X110.039 Y122.896 E0.82328
G1 X110.612 Y122.955 E0.82567
G1 X111.21 Y122.986 E0.82816
G1 X111.794 Y122.987 E0.83059
G1 X112.377 Y122.958 E0.83302
G1 X112.954 Y122.898 E0.83543
G1 X113.525 Y122.811 E0.83783
G1 X114.095 Y122.695 E0.84025
G1 X114.664 Y122.546 E0.84269
G1 X115.214 Y122.374 E0.84509
G1 X115.738 Y122.18 E0.84741
G1 X116.269 Y121.955 E0.84981
G1 X116.762 Y121.715 E0.85209
G1 X117.253 Y121.447 E0.85441
G1 X117.707 Y121.17 E0.85663
G1 X118.183 Y120.848 E0.85901
G1 X118.623 Y120.516 E0.86131
G1 X119.344 Y119.895 E0.86526
G1 X119.744 Y119.504 E0.86759
G1 X120.117 Y119.1 E0.86987
G1 X120.471 Y118.678 E0.87216
G1 X120.801 Y118.243 E0.87443
G1 X121.117 Y117.787 E0.87674
G1 X121.414 Y117.307 E0.87909
G1 X121.684 Y116.818 E0.88141
G1 X121.938 Y116.301 E0.8838
G1 X122.162 Y115.783 E0.88615
G1 X122.36 Y115.249 E0.88852
G1 X122.539 Y114.681 E0.89099
G1 X122.689 Y114.111 E0.89345
G1 X122.806 Y113.542 E0.89586
G1 X122.896 Y112.96 E0.89831
G1 X122.954 Y112.388 E0.9007
G1 X122.986 Y111.79 E0.90319
G1 X122.987 Y111.206 E0.90562
G1 X122.957 Y110.623 E0.90804
G1 X122.898 Y110.046 E0.91046
G1 X122.81 Y109.475 E0.91286
G1 X122.694 Y108.905 E0.91528
G1 X122.545 Y108.336 E0.91772
G1 X122.373 Y107.787 E0.92011
G1 X122.181 Y107.262 E0.92244
G1 X121.955 Y106.731 E0.92484
G1 X121.715 Y106.238 E0.92712
G1 X121.447 Y105.747 E0.92944
G1 X121.169 Y105.293 E0.93165
G1 X120.847 Y104.817 E0.93404
G1 X120.516 Y104.378 E0.93633
G1 X119.895 Y103.656 E0.94029
G1 X119.504 Y103.256 E0.94261
G1 X119.1 Y102.883 E0.9449
G1 X118.678 Y102.529 E0.94719
G1 X118.243 Y102.198 E0.94946
G1 X117.787 Y101.884 E0.95177
G1 X117.312 Y101.589 E0.95409
G1 X116.818 Y101.316 E0.95644
G1 X116.31 Y101.067 E0.95879
G1 X115.783 Y100.838 E0.96118
G1 X115.238 Y100.636 E0.96359
G1 X114.681 Y100.461 E0.96602
G1 X114.116 Y100.312 E0.96845
G1 X113.54 Y100.194 E0.97089
G1 X112.96 Y100.104 E0.97334
G1 X112.388 Y100.046 E0.97573
G1 X111.79 Y100.014 E0.97822
G1 X111.205 Y100.013 E0.98065
G1 X110.623 Y100.043 E0.98307
G1 X110.046 Y100.102 E0.98548
G1 X109.475 Y100.19 E0.98788
G1 X108.905 Y100.306 E0.9903
G1 X108.336 Y100.455 E0.99275
G1 X107.786 Y100.627 E0.99514
G1 X107.252 Y100.824 E0.99751
G1 X106.741 Y101.041 E0.99982
G1 X106.239 Y101.285 E1.00214
G1 X105.754 Y101.549 E1.00443
G1 X105.286 Y101.835 E1.00671
G1 X104.827 Y102.146 E1.00902
G1 X104.378 Y102.484 E1.01136
G1 X103.656 Y103.105 E1.01532
G1 X103.255 Y103.496 E1.01764
G0 F3600 X99.986 Y100.418
G1 F1800 X100.514 Y99.893 E1.02074
G1 X101.09 Y99.375 E1.02396
G1 X101.707 Y98.871 E1.02727
G1 X102.338 Y98.406 E1.03053
G1 X102.997 Y97.968 E1.03382
G1 X103.666 Y97.571 E1.03706
G1 X104.365 Y97.2 E1.04035
G1 X105.066 Y96.872 E1.04356
G1 X105.792 Y96.574 E1.04683
G1 X106.537 Y96.31 E1.05011
G1 X107.293 Y96.083 E1.05339
G1 X108.073 Y95.889 E1.05673
G1 X108.816 Y95.745 E1.05988
G1 X109.587 Y95.633 E1.06312
G1 X110.375 Y95.56 E1.06641
G1 X111.167 Y95.523 E1.06971
G1 X111.939 Y95.526 E1.07292
G1 X112.732 Y95.567 E1.07622
G1 X113.512 Y95.646 E1.07948
G1 X114.29 Y95.764 E1.08275
G1 X115.053 Y95.919 E1.08599
G1 X115.795 Y96.107 E1.08917
G1 X116.562 Y96.342 E1.0925
G1 X117.298 Y96.609 E1.09576
G1 X118.022 Y96.911 E1.09902
G1 X118.735 Y97.251 E1.1023
G1 X119.425 Y97.622 E1.10556
G1 X120.092 Y98.025 E1.1088
G1 X120.748 Y98.466 E1.11209
G1 X121.368 Y98.93 E1.11531
G1 X121.973 Y99.431 E1.11857
G1 X122.582 Y99.986 E1.122
G1 X123.107 Y100.514 E1.12509
G1 X123.625 Y101.09 E1.12831
G1 X124.129 Y101.707 E1.13163
G1 X124.593 Y102.336 E1.13488
G1 X125.032 Y102.997 E1.13818
G1 X125.429 Y103.666 E1.14141
G1 X125.8 Y104.365 E1.1447
G1 X126.128 Y105.066 E1.14792
G1 X126.426 Y105.792 E1.15118
G1 X126.689 Y106.533 E1.15445
G1 X126.918 Y107.293 E1.15775
G1 X127.105 Y108.044 E1.16097
G1 X127.255 Y108.817 E1.16424
G1 X127.366 Y109.579 E1.16744
G1 X127.44 Y110.37 E1.17074
G1 X127.477 Y111.154 E1.17401
G1 X127.474 Y111.939 E1.17727
G1 X127.434 Y112.722 E1.18053
G1 X127.355 Y113.505 E1.1838
G1 X127.238 Y114.28 E1.18706
G1 X127.082 Y115.05 E1.19033
G1 X126.899 Y115.778 E1.19345
G1 X126.661 Y116.556 E1.19683
G1 X126.389 Y117.306 E1.20015
G1 X126.092 Y118.018 E1.20336
G1 X125.749 Y118.735 E1.20666
G1 X125.377 Y119.425 E1.20992
G1 X124.976 Y120.091 E1.21315
G1 X124.534 Y120.748 E1.21644
G1 X124.064 Y121.376 E1.2197
G1 X123.57 Y121.973 E1.22293
G1 X123.015 Y122.581 E1.22635
G1 X122.486 Y123.107 E1.22945
G1 X121.91 Y123.625 E1.23267
G1 X121.293 Y124.129 E1.23598
G1 X120.662 Y124.594 E1.23924
G1 X120.003 Y125.032 E1.24253
G1 X119.334 Y125.429 E1.24577
G1 X118.635 Y125.8 E1.24906
G1 X117.934 Y126.128 E1.25227
G1 X117.208 Y126.426 E1.25554
G1 X116.463 Y126.69 E1.25882
G1 X115.707 Y126.917 E1.2621
G1 X114.928 Y127.111 E1.26544
G1 X114.184 Y127.255 E1.26859
G1 X113.412 Y127.367 E1.27184
G1 X112.625 Y127.441 E1.27512
G1 X111.833 Y127.477 E1.27842
G1 X111.061 Y127.474 E1.28163
G1 X110.268 Y127.433 E1.28493
G1 X109.488 Y127.355 E1.28819
G1 X108.71 Y127.236 E1.29146
G1 X107.947 Y127.081 E1.2947
G1 X107.205 Y126.893 E1.29788
G1 X106.438 Y126.658 E1.30121
G1 X105.702 Y126.391 E1.30447
G1 X104.976 Y126.088 E1.30774
G1 X104.261 Y125.747 E1.31103
G1 X103.571 Y125.376 E1.31429
G1 X102.908 Y124.975 E1.31751
G1 X102.252 Y124.534 E1.3208
G1 X101.623 Y124.063 E1.32407
G1 X101.025 Y123.568 E1.32729
G1 X100.418 Y123.014 E1.33071
G1 X99.891 Y122.484 E1.33382
G1 X99.375 Y121.911 E1.33702
G1 X98.87 Y121.292 E1.34034
G1 X98.406 Y120.662 E1.3436
G1 X97.966 Y119.999 E1.34691
G1 X97.57 Y119.333 E1.35013
G1 X97.198 Y118.631 E1.35343
G1 X96.866 Y117.921 E1.35669
G1 X96.572 Y117.204 E1.35991
G1 X96.307 Y116.455 E1.36321
G1 X96.082 Y115.707 E1.36646
G1 X95.889 Y114.927 E1.3698
G1 X95.745 Y114.184 E1.37295
G1 X95.632 Y113.404 E1.37622
G1 X95.56 Y112.625 E1.37948
G1 X95.523 Y111.846 E1.38272
G1 X95.526 Y111.061 E1.38598
G1 X95.566 Y110.278 E1.38924
G1 X95.644 Y109.495 E1.39251
G1 X95.762 Y108.72 E1.39577
G1 X95.918 Y107.95 E1.39904
G1 X96.102 Y107.222 E1.40216
G1 X96.339 Y106.444 E1.40554
G1 X96.608 Y105.704 E1.40882
G1 X96.909 Y104.982 E1.41207
G1 X97.251 Y104.265 E1.41537
G1 X97.623 Y103.575 E1.41863
G1 X98.024 Y102.909 E1.42186
G1 X98.466 Y102.252 E1.42515
G1 X98.93 Y101.632 E1.42837
G1 X99.431 Y101.027 E1.43164
G1 X99.986 Y100.418 E1.43507
G0 F3600 X100.892 Y123.378
G1 F1800 X99.591 Y122.077 E1.44271
