;FLAVOR:Marlin
;TIME:1176
;Filament used: 1.10176m
;Layer height: 0.2
;MINX:84.138
;MINY:98.206
;MINZ:0.2
;MAXX:138.862
;MAXY:156.794
;MAXZ:12.6
;Generated with Cura_SteamEngine 4.3.0
M140 S65
M105
M190 S65
M104 S190
M105
M109 S190
M82 ;absolute extrusion mode
G21 ;metric values
M92 E285; set Axis Steps-per-unit
M500 ; saved
M501 ; loaded
G90 ;absolute positioning
M82 ;set extruder to absolute mode
M107 ;start with the fan off
G28 Z0 ;move Z to bottom endstops
G28 X0 Y0 ;move X/Y to endstops
G1 X20 Y1 F4000 ;move X/Y to front of printer
G1 Z15.1 F9000 ;move the platform to 15mm
G1 Z15.0 ;set position
G92 E0 ;zero the extruded length
G1 F200 E25 ;extrude 25 mm of feed stock
G92 E0 ;zero the extruded length again
G1 F9000 ;Put printing message on LCD screen
M117; Printing...
G92 E0
G92 E0
;LAYER_COUNT:63
;LAYER:0
M107
;MESH:clip.STL
G0 F3600 X84.138 Y105.546 Z0.2
;TYPE:WALL-OUTER
G1 F1800 X84.338 Y105.546 E0.00665
G1 X86.349 Y105.546 E0.07354
G1 X87.547 Y107.366 E0.14601
G1 X87.747 Y107.67 E0.15811
G1 X87.384 Y107.673 E0.16488
G1 X87.382 Y107.674 E0.16495
G1 X86.292 Y107.689 E0.20121
G1 X86.278 Y114.744 E0.43586
G1 X86.278 Y114.944 E0.44251
G1 X86.478 Y114.944 E0.44682
G1 X114.228 Y114.944 E1.36979
G1 X114.228 Y118.844 E1.4995
G1 X120.628 Y118.844 E1.71237
G1 X120.628 Y98.206 E2.39879
G1 X132.497 Y98.206 E2.79356
G1 X133.771 Y98.299 E2.83604
G1 X134.807 Y98.575 E2.8717
G1 X135.777 Y99.025 E2.90727
G1 X136.655 Y99.638 E2.94288
G1 X137.414 Y100.397 E2.97858
G1 X138.032 Y101.275 E3.0143
G1 X138.486 Y102.244 E3.04989
G1 X138.766 Y103.28 E3.08558
G1 X138.86 Y104.353 E3.1214
G1 X138.862 Y118.244 E3.58342
G1 X138.862 Y118.444 E3.59007
G1 X138.662 Y118.444 E3.59438
G1 X132.737 Y118.444 E3.79145
G1 X132.494 Y118.38 E3.7998
G1 X132.38 Y118.284 E3.80476
G1 X132.31 Y118.163 E3.80941
G1 X132.289 Y117.928 E3.81726
G1 X132.341 Y117.789 E3.82219
G1 X132.434 Y117.678 E3.82701
G1 X132.564 Y117.603 E3.832
G1 X132.912 Y117.542 E3.84375
G1 X132.912 Y104.156 E4.28897
G1 X126.162 Y104.156 E4.51348
G1 X126.162 Y124.794 E5.1999
G1 X90.293 Y124.794 E6.39291
G1 X89.229 Y124.701 E6.42843
G1 X88.193 Y124.425 E6.46409
G1 X87.223 Y123.975 E6.49966
G1 X86.345 Y123.362 E6.53527
G1 X85.586 Y122.603 E6.57097
G1 X84.968 Y121.725 E6.60669
G1 X84.514 Y120.756 E6.64228
G1 X84.234 Y119.72 E6.67797
G1 X84.14 Y118.644 E6.7139
G1 X84.138 Y105.746 E7.14288
G1 X84.138 Y105.546 E7.14719
G0 F3600 X84.338 Y105.546
G0 X84.528 Y105.936
;MESH:clip.STL(1)
G0 F3600 X86.349 Y137.546
;TYPE:WALL-OUTER
G1 F1800 X87.547 Y139.366 E57.66048
G1 X87.747 Y139.67 E57.67258
G1 X87.384 Y139.673 E57.67935
G1 X87.382 Y139.674 E57.67943
G1 X86.292 Y139.689 E57.71568
G1 X86.278 Y146.744 E57.95033
G1 X86.278 Y146.944 E57.95699
G1 X86.478 Y146.944 E57.96129
G1 X114.228 Y146.944 E58.88426
G1 X114.228 Y150.844 E59.01398
G1 X120.628 Y150.844 E59.22684
G1 X120.628 Y130.206 E59.91326
G1 X132.497 Y130.206 E60.30803
G1 X133.771 Y130.299 E60.35051
G1 X134.807 Y130.575 E60.38617
G1 X135.777 Y131.025 E60.42174
G1 X136.655 Y131.638 E60.45735
G1 X137.414 Y132.397 E60.49306
G1 X138.032 Y133.275 E60.52877
G1 X138.486 Y134.244 E60.56436
G1 X138.766 Y135.28 E60.60005
G1 X138.86 Y136.353 E60.63588
G1 X138.862 Y150.244 E61.09789
G1 X138.862 Y150.444 E61.10454
G1 X138.662 Y150.444 E61.10885
G1 X132.737 Y150.444 E61.30592
G1 X132.494 Y150.38 E61.31428
G1 X132.38 Y150.284 E61.31923
G1 X132.31 Y150.163 E61.32388
G1 X132.289 Y149.928 E61.33173
G1 X132.341 Y149.789 E61.33667
G1 X132.434 Y149.678 E61.34148
G1 X132.564 Y149.603 E61.34647
G1 X132.912 Y149.542 E61.35823
G1 X132.912 Y136.156 E61.80345
G1 X126.162 Y136.156 E62.02795
G1 X126.162 Y156.794 E62.71437
G1 X90.293 Y156.794 E63.90738
G1 X89.229 Y156.701 E63.94291
G1 X88.193 Y156.425 E63.97856
G1 X87.223 Y155.975 E64.01413
G1 X86.345 Y155.362 E64.04975
G1 X85.586 Y154.603 E64.08545
G1 X84.968 Y153.725 E64.12116
G1 X84.514 Y152.756 E64.15675
G1 X84.234 Y151.72 E64.19244
G1 X84.14 Y150.644 E64.22837
G1 X84.138 Y137.746 E64.65736
G1 X84.138 Y137.546 E64.66401
G1 X84.338 Y137.546 E64.66831
G1 X86.349 Y137.546 E64.7352
G0 F3600 X86.459 Y137.713
G0 X86.139 Y137.936
;MESH:NONMESH
G0 F600 X86.556 Y139.164 Z0.4
G0 F3600 X84.138 Y105.546
;TIME_ELAPSED:129.772525
M140 S0
M107
M104 S0 ;extruder heater off
M140 S0 ;heated bed heater off (if you have it)
G91 ;relative positioning
G1 E-3 F300  ;retract the filament a bit before lifting the nozzle, to release some of the pressure
G1 Z+0.5 E-5 X-20 Y-20 F9000 ;move Z up a bit and retract filament even more
G28 Z0 ;move X to max endstop
G28 X0 Y0 ;move X/Y to min endstops, so the head is out of the way
M84 ;steppers off
G90 ;absolute positioning
;Version _2.6 of the firmware can abort the print too early if the file ends
;too soon. However if the file hasn't ended yet because there are comments at
;the end of the file, it won't abort yet. Therefore we have to put at least 512
;bytes at the end of the g-code so that the file is not yet finished by the
;time that the motion planner gets flushed. With firmware version _3.3 this
;should be fixed, so this comment wouldn't be necessary any more. Now we have
;to pad this text to make precisely 512 bytes.
M82 ;absolute extrusion mode
M104 S0
;End of Gcode
