;FLAVOR:Marlin
;TIME:576
;Filament used: 0.367072m
;Layer height: 0.2
;MINX:101.7
;MINY:101.7
;MINZ:0.2
;MAXX:121.3
;MAXY:121.3
;MAXZ:20
;Generated with Cura_SteamEngine 4.3.0
M140 S65
M105
M190 S65
M104 S190
M105
M109 S190
M82 ;absolute extrusion mode
G21 ;metric values
M92 E285; set Axis Steps-per-unit
M500 ; saved
M501 ; loaded
G90 ;absolute positioning
M82 ;set extruder to absolute mode
M107 ;start with the fan off
G28 Z0 ;move Z to bottom endstops
G28 X0 Y0 ;move X/Y to endstops
G1 X20 Y1 F4000 ;move X/Y to front of printer
G1 Z15.1 F9000 ;move the platform to 15mm
G1 Z15.0 ;set position
G92 E0 ;zero the extruded length
G1 F200 E25 ;extrude 25 mm of feed stock
G92 E0 ;zero the extruded length again
G1 F9000 ;Put printing message on LCD screen
M117; Printing...
G92 E0
G92 E0
;LAYER_COUNT:100
;LAYER:0
M107
;MESH:xyzCalibration_cube.stl
G0 F3600 X101.7 Y101.7 Z0.2
;TYPE:WALL-OUTER
G1 F1800 X121.3 Y101.7 E0.6519
G1 X121.3 Y121.3 E1.3038
G1 X101.7 Y121.3 E1.9557
G1 X101.7 Y101.7 E2.60759
G0 F3600 X101.9 Y101.7
G0 X102.09 Y102.09
;TYPE:SKIN
G1 F1800 X120.91 Y102.09 E3.23355
G1 X120.91 Y120.91 E3.85951
G1 X102.09 Y120.91 E4.48546
G1 X102.09 Y102.09 E5.11142
G0 F3600 X120.709 Y102.607
G1 F1800 X120.392 Y102.29 E5.12633
G0 F3600 X119.826 Y102.29
G1 F1800 X120.709 Y103.173 E5.16786
G0 F3600 X120.709 Y103.738
G1 F1800 X119.26 Y102.29 E5.23599
G0 F3600 X118.694 Y102.29
G1 F1800 X120.709 Y104.304 E5.33075
G0 F3600 X120.709 Y104.87
G1 F1800 X118.129 Y102.29 E5.45211
G0 F3600 X117.563 Y102.29
G1 F1800 X120.709 Y105.435 E5.60006
G0 F3600 X120.709 Y106.001
G1 F1800 X116.997 Y102.29 E5.77464
G0 F3600 X116.432 Y102.29
G1 F1800 X120.709 Y106.567 E5.97582
G0 F3600 X120.709 Y107.133
G1 F1800 X115.866 Y102.29 E6.20362
G0 F3600 X115.3 Y102.29
G1 F1800 X120.709 Y107.698 E6.45801
G0 F3600 X120.709 Y108.264
G1 F1800 X114.735 Y102.29 E6.73901
G0 F3600 X114.169 Y102.29
G1 F1800 X120.709 Y108.83 E7.04663
G0 F3600 X120.709 Y109.395
G1 F1800 X113.603 Y102.29 E7.38086
G0 F3600 X113.038 Y102.29
G1 F1800 X120.709 Y109.961 E7.74168
G0 F3600 X120.709 Y110.527
G1 F1800 X112.472 Y102.29 E8.12912
G0 F3600 X111.906 Y102.29
G1 F1800 X120.709 Y111.092 E8.54316
G0 F3600 X120.709 Y111.658
G1 F1800 X111.341 Y102.29 E8.9838
G0 F3600 X110.775 Y102.29
G1 F1800 X120.709 Y112.224 E9.45107
G0 F3600 X120.709 Y112.789
G1 F1800 X110.209 Y102.29 E9.94493
G0 F3600 X109.643 Y102.29
G1 F1800 X120.709 Y113.355 E10.46542
G0 F3600 X120.709 Y113.921
G1 F1800 X109.078 Y102.29 E11.01251
G0 F3600 X108.512 Y102.29
G1 F1800 X120.709 Y114.486 E11.58619
G0 F3600 X120.709 Y115.052
G1 F1800 X107.946 Y102.29 E12.1865
G0 F3600 X107.381 Y102.29
G1 F1800 X120.709 Y115.618 E12.81341
G0 F3600 X120.709 Y116.184
G1 F1800 X106.815 Y102.29 E13.46694
G0 F3600 X106.249 Y102.29
G1 F1800 X120.709 Y116.749 E14.14707
G0 F3600 X120.709 Y117.315
G1 F1800 X105.684 Y102.29 E14.8538
G0 F3600 X105.118 Y102.29
G1 F1800 X120.709 Y117.881 E15.58715
G0 F3600 X120.709 Y118.446
G1 F1800 X104.552 Y102.29 E16.34711
G0 F3600 X103.987 Y102.29
G1 F1800 X120.709 Y119.012 E17.13366
G0 F3600 X120.709 Y119.578
G1 F1800 X103.421 Y102.29 E17.94683
G0 F3600 X102.855 Y102.29
G1 F1800 X120.709 Y120.143 E18.78661
G0 F3600 X120.709 Y120.709
G1 F1800 X102.289 Y102.289 E19.65303
G0 F3600 X102.289 Y102.855
G1 F1800 X120.143 Y120.708 E20.4928
G0 F3600 X119.577 Y120.708
G1 F1800 X102.289 Y103.42 E21.30598
G0 F3600 X102.289 Y103.986
G1 F1800 X119.011 Y120.708 E22.09253
G0 F3600 X118.446 Y120.708
G1 F1800 X102.289 Y104.552 E22.85248
G0 F3600 X102.289 Y105.117
G1 F1800 X117.88 Y120.708 E23.58583
G0 F3600 X117.314 Y120.708
G1 F1800 X102.289 Y105.683 E24.29256
G0 F3600 X102.289 Y106.249
G1 F1800 X116.748 Y120.708 E24.97267
G0 F3600 X116.183 Y120.708
G1 F1800 X102.289 Y106.814 E25.6262
G0 F3600 X102.289 Y107.38
G1 F1800 X115.617 Y120.708 E26.25311
G0 F3600 X115.051 Y120.708
G1 F1800 X102.289 Y107.946 E26.85339
G0 F3600 X102.289 Y108.511
G1 F1800 X114.486 Y120.708 E27.4271
G0 F3600 X113.92 Y120.708
G1 F1800 X102.289 Y109.077 E27.97419
G0 F3600 X102.289 Y109.643
G1 F1800 X113.354 Y120.708 E28.49465
G0 F3600 X112.789 Y120.708
G1 F1800 X102.289 Y110.208 E28.98854
G0 F3600 X102.289 Y110.774
G1 F1800 X112.223 Y120.708 E29.45581
G0 F3600 X111.657 Y120.708
G1 F1800 X102.289 Y111.34 E29.89645
G0 F3600 X102.289 Y111.906
G1 F1800 X111.092 Y120.708 E30.31049
G0 F3600 X110.526 Y120.708
G1 F1800 X102.289 Y112.471 E30.69793
G0 F3600 X102.289 Y113.037
G1 F1800 X109.96 Y120.708 E31.05875
G0 F3600 X109.395 Y120.708
G1 F1800 X102.289 Y113.603 E31.39298
G0 F3600 X102.289 Y114.168
G1 F1800 X108.829 Y120.708 E31.7006
G0 F3600 X108.263 Y120.708
G1 F1800 X102.289 Y114.734 E31.9816
G0 F3600 X102.289 Y115.3
G1 F1800 X107.698 Y120.708 E32.23599
G0 F3600 X107.132 Y120.708
G1 F1800 X102.289 Y115.865 E32.46379
G0 F3600 X102.289 Y116.431
G1 F1800 X106.566 Y120.708 E32.66497
G0 F3600 X106 Y120.708
G1 F1800 X102.289 Y116.997 E32.83953
G0 F3600 X102.289 Y117.562
G1 F1800 X105.435 Y120.708 E32.9875
G0 F3600 X104.869 Y120.708
G1 F1800 X102.289 Y118.128 E33.10886
G0 F3600 X102.289 Y118.694
G1 F1800 X104.303 Y120.708 E33.20359
G0 F3600 X103.738 Y120.708
G1 F1800 X102.289 Y119.259 E33.27175
G0 F3600 X102.289 Y119.825
G1 F1800 X103.172 Y120.708 E33.31328
G0 F3600 X102.606 Y120.708
G1 F1800 X102.289 Y120.391 E33.32819
;MESH:NONMESH
G0 F600 X102.289 Y120.391 Z0.4
G0 F3600 X101.7 Y101.7
;TIME_ELAPSED:38.013912
;LAYER:1
M140 S65
M106 S28.3
;TYPE:WALL-OUTER
;MESH:xyzCalibration_cube.stl
G1 F982 X121.3 Y101.7 E33.98009
G1 X121.3 Y121.3 E34.63199
G1 X101.7 Y121.3 E35.28389
G1 X101.7 Y101.7 E35.93579
G0 F5400 X101.9 Y101.7
;MESH:NONMESH
G0 F600 X101.9 Y101.7 Z0.6
G0 F5400 X101.7 Y101.7
;TIME_ELAPSED:42.895372
;LAYER:2
M106 S56.7
;TYPE:WALL-OUTER
;MESH:xyzCalibration_cube.stl
G1 F941.4 X121.3 Y101.7 E36.58769
G1 X121.3 Y121.3 E37.23958
G1 X101.7 Y121.3 E37.89148
G1 X101.7 Y101.7 E38.54338
G0 F7200 X101.9 Y101.7
;MESH:NONMESH
G0 F600 X101.9 Y101.7 Z0.8
G0 F7200 X101.7 Y101.7
;TIME_ELAPSED:47.980397
;LAYER:3
M106 S85
;TYPE:WALL-OUTER
;MESH:xyzCalibration_cube.stl
G1 F941.4 X121.3 Y101.7 E39.19528
G1 X121.3 Y121.3 E39.84718
G1 X101.7 Y121.3 E40.49908
G1 X101.7 Y101.7 E41.15098
G0 F7200 X101.9 Y101.7
;MESH:NONMESH
G0 F600 X101.9 Y101.7 Z1
G0 F7200 X101.7 Y101.7
;TIME_ELAPSED:53.065422
;LAYER:4
M106 S113.3
;TYPE:WALL-OUTER
;MESH:xyzCalibration_cube.stl
G1 F941.4 X121.3 Y101.7 E41.80287
G1 X121.3 Y121.3 E42.45477
G1 X101.7 Y121.3 E43.10667
G1 X101.7 Y101.7 E43.75857
G0 F7200 X101.9 Y101.7
;MESH:NONMESH
G0 F600 X101.9 Y101.7 Z1.2
G0 F7200 X101.7 Y101.7
;TIME_ELAPSED:58.150447
;LAYER:5
M106 S141.7
;TYPE:WALL-OUTER
;MESH:xyzCalibration_cube.stl
G1 F941.4 X121.3 Y101.7 E44.41047
G1 X121.3 Y121.3 E45.06237
G1 X101.7 Y121.3 E45.71427
G1 X101.7 Y101.7 E46.36617
G0 F7200 X101.9 Y101.7
;MESH:NONMESH
G0 F600 X101.9 Y101.7 Z1.4
G0 F7200 X101.7 Y101.7
;TIME_ELAPSED:63.235472
;LAYER:6
M106 S170
;TYPE:WALL-OUTER
;MESH:xyzCalibration_cube.stl
G1 F941.4 X121.3 Y101.7 E47.01806
G1 X121.3 Y121.3 E47.66996
G1 X101.7 Y121.3 E48.32186
G1 X101.7 Y101.7 E48.97376
G0 F7200 X101.9 Y101.7
;MESH:NONMESH
G0 F600 X101.9 Y101.7 Z1.6
G0 F7200 X101.7 Y101.7
;TIME_ELAPSED:68.320497
;LAYER:7
M106 S198.3
;TYPE:WALL-OUTER
;MESH:xyzCalibration_cube.stl
G1 F941.4 X121.3 Y101.7 E49.62566
G1 X121.3 Y121.3 E50.27756
G1 X101.7 Y121.3 E50.92946
G1 X101.7 Y101.7 E51.58135
G0 F7200 X101.9 Y101.7
;MESH:NONMESH
G0 F600 X101.9 Y101.7 Z1.8
G0 F7200 X101.7 Y101.7
;TIME_ELAPSED:73.405522
;LAYER:8
M106 S226.7
;TYPE:WALL-OUTER
;MESH:xyzCalibration_cube.stl
G1 F941.4 X121.3 Y101.7 E52.23325
G1 X121.3 Y121.3 E52.88515
G1 X101.7 Y121.3 E53.53705
G1 X101.7 Y101.7 E54.18895
G0 F7200 X101.9 Y101.7
;MESH:NONMESH
G0 F600 X101.9 Y101.7 Z2
G0 F7200 X101.7 Y101.7
;TIME_ELAPSED:78.490547
;LAYER:9
M106 S255
;TYPE:WALL-OUTER
;MESH:xyzCalibration_cube.stl
G1 F941.4 X121.3 Y101.7 E54.84085
G1 X121.3 Y121.3 E55.49275
G1 X101.7 Y121.3 E56.14464
G1 X101.7 Y101.7 E56.79654
G0 F7200 X101.9 Y101.7
;MESH:NONMESH
G0 F600 X101.9 Y101.7 Z2.2
G0 F7200 X101.7 Y101.7
;TIME_ELAPSED:83.575572
;LAYER:10
;TYPE:WALL-OUTER
;MESH:xyzCalibration_cube.stl
G1 F941.4 X121.3 Y101.7 E57.44844
G1 X121.3 Y121.3 E58.10034
G1 X101.7 Y121.3 E58.75224
G1 X101.7 Y101.7 E59.40414
G0 F7200 X101.9 Y101.7
;MESH:NONMESH
G0 F600 X101.9 Y101.7 Z2.4
G0 F7200 X101.7 Y101.7
;TIME_ELAPSED:88.660597
;LAYER:11
;TYPE:WALL-OUTER
;MESH:xyzCalibration_cube.stl
G1 F941.4 X121.3 Y101.7 E60.05604
G1 X121.3 Y121.3 E60.70794
G1 X101.7 Y121.3 E61.35983
G1 X101.7 Y101.7 E62.01173
G0 F7200 X101.9 Y101.7
;MESH:NONMESH
G0 F600 X101.9 Y101.7 Z2.6
G0 F7200 X101.7 Y101.7
;TIME_ELAPSED:93.745622
;LAYER:12
;TYPE:WALL-OUTER
;MESH:xyzCalibration_cube.stl
G1 F941.4 X121.3 Y101.7 E62.66363
G1 X121.3 Y121.3 E63.31553
G1 X101.7 Y121.3 E63.96743
G1 X101.7 Y101.7 E64.61933
G0 F7200 X101.9 Y101.7
;MESH:NONMESH
G0 F600 X101.9 Y101.7 Z2.8
G0 F7200 X101.7 Y101.7
;TIME_ELAPSED:98.830647
;LAYER:13
;TYPE:WALL-OUTER
;MESH:xyzCalibration_cube.stl
G1 F941.4 X121.3 Y101.7 E65.27123
G1 X121.3 Y121.3 E65.92312
G1 X101.7 Y121.3 E66.57502
G1 X101.7 Y101.7 E67.22692
G0 F7200 X101.9 Y101.7
;MESH:NONMESH
G0 F600 X101.9 Y101.7 Z3
G0 F7200 X101.7 Y101.7
;TIME_ELAPSED:103.915672
;LAYER:14
;TYPE:WALL-OUTER
;MESH:xyzCalibration_cube.stl
G1 F941.4 X121.3 Y101.7 E67.87882
G1 X121.3 Y121.3 E68.53072
G1 X101.7 Y121.3 E69.18262
G1 X101.7 Y101.7 E69.83452
G0 F7200 X101.9 Y101.7
;MESH:NONMESH
G0 F600 X101.9 Y101.7 Z3.2
G0 F7200 X101.7 Y101.7
;TIME_ELAPSED:109.000697
;LAYER:15
;TYPE:WALL-OUTER
;MESH:xyzCalibration_cube.stl
G1 F941.4 X121.3 Y101.7 E70.48642
G1 X121.3 Y121.3 E71.13831
G1 X101.7 Y121.3 E71.79021
G1 X101.7 Y101.7 E72.44211
G0 F7200 X101.9 Y101.7
;MESH:NONMESH
G0 F600 X101.9 Y101.7 Z3.4
G0 F7200 X101.7 Y101.7
;TIME_ELAPSED:114.085722
;LAYER:16
;TYPE:WALL-OUTER
;MESH:xyzCalibration_cube.stl
G1 F941.4 X121.3 Y101.7 E73.09401
G1 X121.3 Y121.3 E73.74591
G1 X101.7 Y121.3 E74.39781
G1 X101.7 Y101.7 E75.04971
G0 F7200 X101.9 Y101.7
;MESH:NONMESH
G0 F600 X101.9 Y101.7 Z3.6
G0 F7200 X101.7 Y101.7
;TIME_ELAPSED:119.170747
;LAYER:17
;TYPE:WALL-OUTER
;MESH:xyzCalibration_cube.stl
G1 F1266.7 X121.3 Y101.7 E75.7016
G1 X121.3 Y121.3 E76.3535
G1 X101.7 Y121.3 E77.0054
G1 X101.7 Y101.7 E77.6573
G0 F7200 X101.9 Y101.7
G0 X106.335 Y102.09
;TYPE:SKIN
G1 F1266.7 X108.374 Y102.09 E77.72512
G1 X108.37 Y103.602 E77.77541
G1 X106.345 Y103.602 E77.84276
G1 X106.335 Y102.09 E77.89305
G0 F7200 X106.539 Y102.764
;TYPE:SKIN
G1 F1266.7 X107.013 Y102.29 E77.91534
G0 F7200 X107.579 Y102.29
G1 F1266.7 X106.543 Y103.325 E77.96405
G0 F7200 X107.032 Y103.402
G1 F1266.7 X108.144 Y102.29 E78.01636
G0 F7200 X108.171 Y102.829
G1 F1266.7 X107.598 Y103.402 E78.04331
G1 X107.528 Y103.472
G0 F7200 X113.811 Y103.602
;TYPE:SKIN
G1 F1266.7 X113.812 Y102.09 E78.0936
G1 X116.014 Y102.09 E78.16684
G1 X116.013 Y103.602 E78.21713
G1 X113.811 Y103.602 E78.29037
G0 F7200 X114.367 Y102.29
;TYPE:SKIN
G1 F1266.7 X114.011 Y102.646 E78.30711
G0 F7200 X114.011 Y103.212
G1 F1266.7 X114.933 Y102.29 E78.35048
G0 F7200 X115.498 Y102.29
G1 F1266.7 X114.386 Y103.402 E78.40278
G0 F7200 X114.952 Y103.402
G1 F1266.7 X115.812 Y102.542 E78.44324
G0 F7200 X115.812 Y103.108
G1 F1266.7 X115.517 Y103.402 E78.45709
;MESH:NONMESH
G0 F600 X115.517 Y103.402 Z3.8
G0 F7200 X101.7 Y101.7
;TIME_ELAPSED:124.648278
;LAYER:18
;TYPE:WALL-OUTER
;MESH:xyzCalibration_cube.stl
G1 F1251.6 X106.342 Y101.7 E78.61148
G1 X106.354 Y103.592 E78.67441
G1 X108.359 Y103.592 E78.7411
G1 X108.364 Y101.708 E78.80376
G1 X113.622 Y101.7 E78.97864
G1 X113.822 Y101.7 E78.98529
G1 X113.822 Y101.9 E78.9896
G1 X113.821 Y103.392 E79.03922
G1 X113.821 Y103.592 E79.04588
G1 X114.021 Y103.592 E79.05018
G1 X116.003 Y103.592 E79.11611
G1 X116.004 Y101.707 E79.1788
G1 X121.1 Y101.7 E79.34829
G1 X121.3 Y101.7 E79.35495
G1 X121.3 Y101.9 E79.35925
G1 X121.3 Y110.129 E79.63295
G1 X120.864 Y110.13 E79.64745
G1 X120.666 Y110.13 E79.65404
G1 X120.639 Y110.501 E79.66641
G1 X120.835 Y110.529 E79.67276
G1 X121.3 Y110.597 E79.68839
G1 X121.3 Y121.3 E80.04437
G1 X101.7 Y121.3 E80.69627
G1 X101.7 Y101.7 E81.34817
G0 F7200 X101.9 Y101.7
G0 X119.345 Y110.116
;TYPE:SKIN
G1 F1251.6 X120.276 Y110.116 E81.37913
G1 X120.224 Y110.835 E81.40311
G1 X120.91 Y110.934 E81.42616
G1 X120.91 Y112.218 E81.46887
G1 X119.345 Y112.217 E81.52092
G1 X119.345 Y110.116 E81.5908
G0 F7200 X120.051 Y110.435
;TYPE:SKIN
G1 F1251.6 X119.933 Y110.316 E81.59637
G0 F7200 X119.544 Y110.493
G1 F1251.6 X120.013 Y110.962 E81.61843
G0 F7200 X120.065 Y111.014
G1 F1251.6 X120.709 Y111.658 E81.64873
G0 F7200 X120.502 Y112.017
G1 F1251.6 X119.544 Y111.058 E81.69381
G0 F7200 X119.544 Y111.624
G1 F1251.6 X119.936 Y112.017 E81.71227
;MESH:NONMESH
G0 F600 X119.936 Y112.017 Z4
G0 F7200 X101.7 Y101.7
;TIME_ELAPSED:129.940751
;LAYER:19
;TYPE:WALL-OUTER
;MESH:xyzCalibration_cube.stl
G1 F1117.6 X106.462 Y101.7 E81.87066
G1 X106.464 Y103.392 E81.92693
G1 X106.464 Y103.592 E81.93359
G1 X106.664 Y103.592 E81.93789
G1 X108.484 Y103.588 E81.99843
G1 X108.484 Y101.7 E82.06122
G1 X113.501 Y101.7 E82.22809
G1 X113.701 Y101.7 E82.23474
G1 X113.701 Y101.9 E82.23905
G1 X113.699 Y103.392 E82.28867
G1 X113.699 Y103.592 E82.29532
G1 X113.899 Y103.592 E82.29963
G1 X115.876 Y103.592 E82.36539
G1 X115.877 Y101.7 E82.42831
G1 X121.3 Y101.7 E82.60868
G1 X121.3 Y110.127 E82.88897
G1 X119.355 Y110.13 E82.95366
G1 X119.355 Y112.207 E83.02274
G1 X121.3 Y112.208 E83.08743
G1 X121.3 Y121.3 E83.38983
G1 X101.7 Y121.3 E84.04173
G1 X101.7 Y101.7 E84.69363
G0 F7200 X101.9 Y101.7
;MESH:NONMESH
G0 F600 X101.9 Y101.7 Z4.2
G0 F7200 X101.7 Y101.7
;TIME_ELAPSED:134.858034
;LAYER:20
;TYPE:WALL-OUTER
;MESH:xyzCalibration_cube.stl
G1 F1078.9 X106.573 Y101.7 E84.85571
G1 X106.575 Y103.392 E84.91198
G1 X106.575 Y103.592 E84.91863
G1 X106.775 Y103.592 E84.92294
G1 X108.602 Y103.589 E84.98371
G1 X108.602 Y101.7 E85.04654
G1 X113.379 Y101.7 E85.20542
G1 X113.579 Y101.7 E85.21207
G1 X113.579 Y101.9 E85.21638
G1 X113.578 Y103.392 E85.266
G1 X113.578 Y103.592 E85.27265
G1 X113.778 Y103.592 E85.27696
G1 X115.75 Y103.592 E85.34255
G1 X115.751 Y101.7 E85.40548
G1 X121.3 Y101.7 E85.59004
G1 X121.3 Y110.125 E85.87026
G1 X119.356 Y110.126 E85.93491
G1 X119.356 Y112.205 E86.00406
G1 X121.3 Y112.206 E86.06872
G1 X121.3 Y121.3 E86.37119
G1 X101.7 Y121.3 E87.02309
G1 X101.7 Y101.7 E87.67498
G0 F7200 X101.9 Y101.7
;MESH:NONMESH
G0 F600 X101.9 Y101.7 Z4.4
G0 F7200 X101.7 Y101.7
;TIME_ELAPSED:139.946954
;LAYER:21
;TYPE:WALL-OUTER
;MESH:xyzCalibration_cube.stl
G1 F1079 X106.684 Y101.7 E87.84075
G1 X106.686 Y103.593 E87.90371
G1 X108.721 Y103.591 E87.9714
G1 X108.721 Y101.7 E88.03429
G1 X113.257 Y101.7 E88.18516
G1 X113.457 Y101.7 E88.19181
G1 X113.457 Y101.9 E88.19612
G1 X113.456 Y103.393 E88.24578
G1 X113.456 Y103.593 E88.25243
G1 X113.656 Y103.593 E88.25674
G1 X115.623 Y103.593 E88.32216
G1 X115.624 Y101.7 E88.38512
G1 X121.3 Y101.7 E88.57391
G1 X121.3 Y110.122 E88.85402
G1 X119.356 Y110.122 E88.91868
G1 X119.356 Y112.203 E88.9879
G1 X121.3 Y112.204 E89.05255
G1 X121.3 Y121.3 E89.35509
G1 X101.7 Y121.3 E90.00699
G1 X101.7 Y101.7 E90.65888
G0 F7200 X101.9 Y101.7
;MESH:NONMESH
G0 F600 X101.9 Y101.7 Z4.6
G0 F7200 X101.7 Y101.7
;TIME_ELAPSED:145.035879
;LAYER:22
;TYPE:WALL-OUTER
;MESH:xyzCalibration_cube.stl
G1 F1079 X106.795 Y101.7 E90.82834
G1 X106.797 Y103.593 E90.89131
G1 X108.839 Y103.592 E90.95922
G1 X108.839 Y101.7 E91.02215
G1 X113.135 Y101.7 E91.16504
G1 X113.335 Y101.7 E91.17169
G1 X113.335 Y101.9 E91.176
G1 X113.334 Y103.393 E91.22565
G1 X113.334 Y103.593 E91.23231
G1 X113.534 Y103.593 E91.23661
G1 X115.497 Y103.593 E91.3019
G1 X115.498 Y101.7 E91.36486
G1 X121.3 Y101.7 E91.55784
G1 X121.3 Y110.12 E91.83789
G1 X119.356 Y110.12 E91.90255
G1 X119.356 Y112.201 E91.97176
G1 X121.3 Y112.201 E92.03642
G1 X121.3 Y121.3 E92.33905
G1 X101.7 Y121.3 E92.99095
G1 X101.7 Y101.7 E93.64285
G0 F7200 X101.9 Y101.7
;MESH:NONMESH
G0 F600 X101.9 Y101.7 Z4.8
G0 F7200 X101.7 Y101.7
;TIME_ELAPSED:150.124805
;LAYER:23
;TYPE:WALL-OUTER
;MESH:xyzCalibration_cube.stl
G1 F1079 X106.906 Y101.7 E93.816
G1 X106.908 Y103.593 E93.87896
G1 X108.958 Y103.592 E93.94715
