;FLAVOR:Marlin
;TIME:573
;Filament used: 0.550813m
;Layer height: 0.2
;MINX:84.138
;MINY:98.206
;MINZ:0.2
;MAXX:138.862
;MAXY:124.794
;MAXZ:12.6
;Generated with Cura_SteamEngine 4.3.0
M140 S65
M105
M190 S65
M104 S190
M105
M109 S190
M82 ;absolute extrusion mode
G21 ;metric values
M92 E285; set Axis Steps-per-unit
M500 ; saved
M501 ; loaded
G90 ;absolute positioning
M82 ;set extruder to absolute mode
M107 ;start with the fan off
G28 Z0 ;move Z to bottom endstops
G28 X0 Y0 ;move X/Y to endstops
G1 X20 Y1 F4000 ;move X/Y to front of printer
G1 Z15.1 F9000 ;move the platform to 15mm
G1 Z15.0 ;set position
G92 E0 ;zero the extruded length
G1 F200 E25 ;extrude 25 mm of feed stock
G92 E0 ;zero the extruded length again
G1 F9000 ;Put printing message on LCD screen
M117; Printing...
G92 E0
G92 E0
;LAYER_COUNT:63
;LAYER:0
M107
;MESH:clip.STL
G0 F3600 X84.138 Y105.546 Z0.2
;TYPE:WALL-OUTER
G1 F1800 X84.338 Y105.546 E0.00665
G1 X86.349 Y105.546 E0.07354
G1 X87.547 Y107.366 E0.14601
G1 X87.747 Y107.67 E0.15811
G1 X87.384 Y107.673 E0.16488
G1 X87.382 Y107.674 E0.16495
G1 X86.292 Y107.689 E0.20121
G1 X86.278 Y114.744 E0.43586
G1 X86.278 Y114.944 E0.44251
G1 X86.478 Y114.944 E0.44682
G1 X114.228 Y114.944 E1.36979
G1 X114.228 Y118.844 E1.4995
G1 X120.628 Y118.844 E1.71237
G1 X120.628 Y98.206 E2.39879
G1 X132.497 Y98.206 E2.79356
G1 X133.771 Y98.299 E2.83604
G1 X134.807 Y98.575 E2.8717
G1 X135.777 Y99.025 E2.90727
G1 X136.655 Y99.638 E2.94288
G1 X137.414 Y100.397 E2.97858
G1 X138.032 Y101.275 E3.0143
G1 X138.486 Y102.244 E3.04989
G1 X138.766 Y103.28 E3.08558
G1 X138.86 Y104.353 E3.1214
G1 X138.862 Y118.244 E3.58342
G1 X138.862 Y118.444 E3.59007
G1 X138.662 Y118.444 E3.59438
G1 X132.737 Y118.444 E3.79145
G1 X132.494 Y118.38 E3.7998
G1 X132.38 Y118.284 E3.80476
G1 X132.31 Y118.163 E3.80941
G1 X132.289 Y117.928 E3.81726
G1 X132.341 Y117.789 E3.82219
G1 X132.434 Y117.678 E3.82701
G1 X132.564 Y117.603 E3.832
G1 X132.912 Y117.542 E3.84375
G1 X132.912 Y104.156 E4.28897
G1 X126.162 Y104.156 E4.51348
G1 X126.162 Y124.794 E5.1999
G1 X90.293 Y124.794 E6.39291
G1 X89.229 Y124.701 E6.42843
G1 X88.193 Y124.425 E6.46409
G1 X87.223 Y123.975 E6.49966
G1 X86.345 Y123.362 E6.53527
G1 X85.586 Y122.603 E6.57097
G1 X84.968 Y121.725 E6.60669
G1 X84.514 Y120.756 E6.64228
G1 X84.234 Y119.72 E6.67797
G1 X84.14 Y118.644 E6.7139
G1 X84.138 Y105.746 E7.14288
G1 X84.138 Y105.546 E7.14719
G0 F3600 X84.338 Y105.546
G0 X84.528 Y105.936
;TYPE:SKIN
G1 F1800 X86.139 Y105.936 E7.20077
G1 X87.029 Y107.289 E7.25464
G1 X85.902 Y107.304 E7.29213
G1 X85.888 Y115.334 E7.5592
G1 X113.838 Y115.334 E8.48883
G1 X113.838 Y119.234 E8.61854
G1 X121.018 Y119.234 E8.85735
G1 X121.018 Y98.596 E9.54377
G1 X132.496 Y98.596 E9.92553
G1 X133.701 Y98.684 E9.96572
G1 X134.678 Y98.945 E9.99935
G1 X135.578 Y99.362 E10.03234
G1 X136.409 Y99.942 E10.06605
G1 X137.112 Y100.645 E10.09911
G1 X137.692 Y101.47 E10.13266
G1 X138.12 Y102.381 E10.16613
G1 X138.381 Y103.349 E10.19948
G1 X138.47 Y104.353 E10.233
G1 X138.472 Y118.054 E10.6887
G1 X132.786 Y118.054 E10.87782
G1 X132.689 Y118.029 E10.88115
G1 X132.685 Y117.985 E10.88262
G1 X132.698 Y117.975 E10.88316
G1 X133.302 Y117.87 E10.90355
G1 X133.302 Y103.766 E11.37265
G1 X125.772 Y103.766 E11.6231
G1 X125.772 Y124.404 E12.30953
G1 X90.305 Y124.404 E13.48916
G1 X89.3 Y124.316 E13.52272
G1 X88.322 Y124.055 E13.55638
G1 X87.422 Y123.638 E13.58938
G1 X86.591 Y123.058 E13.62308
G1 X85.888 Y122.355 E13.65615
G1 X85.308 Y121.53 E13.68969
G1 X84.88 Y120.619 E13.72317
G1 X84.619 Y119.651 E13.75651
G1 X84.53 Y118.644 E13.79014
G1 X84.528 Y105.936 E14.21281
G0 F3600 X88.087 Y123.725
G1 F1800 X85.208 Y120.846 E14.34823
G1 X85.138 Y120.776
G0 F3600 X84.917 Y119.989
G1 F1800 X88.939 Y124.012 E14.53743
G0 F3600 X89.637 Y124.144
G1 F1800 X84.787 Y119.294 E14.76556
G0 F3600 X84.733 Y118.674
G1 F1800 X90.257 Y124.198 E15.02539
G0 F3600 X90.827 Y124.203
G1 F1800 X84.729 Y118.105 E15.31222
G0 F3600 X84.729 Y117.539
G1 F1800 X91.393 Y124.203 E15.62568
G0 F3600 X91.959 Y124.203
G1 F1800 X84.729 Y116.973 E15.96576
G0 F3600 X84.729 Y116.408
G1 F1800 X92.524 Y124.203 E16.33241
G0 F3600 X93.09 Y124.203
G1 F1800 X84.729 Y115.842 E16.72568
G0 F3600 X84.729 Y115.276
G1 F1800 X93.656 Y124.203 E17.14558
G0 F3600 X94.221 Y124.203
G1 F1800 X84.729 Y114.711 E17.59206
G0 F3600 X84.729 Y114.144
G1 F1800 X85.689 Y115.104 E17.63721
G0 F3600 X85.69 Y114.539
G1 F1800 X84.729 Y113.579 E17.68239
G0 F3600 X84.729 Y113.013
G1 F1800 X85.69 Y113.975 E17.72762
G0 F3600 X85.692 Y113.41
G1 F1800 X84.729 Y112.447 E17.77291
G0 F3600 X84.729 Y111.881
G1 F1800 X85.692 Y112.845 E17.81823
G0 F3600 X85.693 Y112.28
G1 F1800 X84.729 Y111.316 E17.86358
G0 F3600 X84.729 Y110.75
G1 F1800 X85.694 Y111.716 E17.90899
G0 F3600 X85.695 Y111.151
G1 F1800 X84.728 Y110.184 E17.95448
G0 F3600 X84.728 Y109.618
G1 F1800 X85.696 Y110.586 E18.00001
G0 F3600 X85.697 Y110.022
G1 F1800 X84.728 Y109.052 E18.04561
G0 F3600 X84.728 Y108.487
G1 F1800 X85.698 Y109.457 E18.09124
G0 F3600 X85.699 Y108.892
G1 F1800 X84.728 Y107.921 E18.13691
G0 F3600 X84.728 Y107.355
G1 F1800 X85.7 Y108.328 E18.18265
G0 F3600 X85.701 Y107.763
G1 F1800 X84.728 Y106.79 E18.22842
G0 F3600 X84.728 Y106.224
G1 F1800 X85.702 Y107.198 E18.27423
G0 F3600 X86.169 Y107.099
G1 F1800 X85.204 Y106.135 E18.3196
G0 F3600 X85.77 Y106.135
G1 F1800 X86.53 Y106.895 E18.35535
G1 X86.6 Y106.965
G0 F3600 X86.683 Y115.533
G1 F1800 X95.353 Y124.203 E18.76316
G0 F3600 X95.919 Y124.203
G1 F1800 X87.249 Y115.533 E19.17097
G0 F3600 X87.814 Y115.533
G1 F1800 X96.484 Y124.203 E19.57878
G0 F3600 X97.05 Y124.203
G1 F1800 X88.38 Y115.533 E19.98659
G0 F3600 X88.946 Y115.533
G1 F1800 X97.616 Y124.203 E20.3944
G0 F3600 X98.181 Y124.203
G1 F1800 X89.511 Y115.533 E20.80221
G0 F3600 X90.077 Y115.533
G1 F1800 X98.747 Y124.203 E21.21002
G0 F3600 X99.313 Y124.203
G1 F1800 X90.643 Y115.533 E21.61783
G0 F3600 X91.208 Y115.533
G1 F1800 X99.878 Y124.203 E22.02564
G0 F3600 X100.444 Y124.203
G1 F1800 X91.774 Y115.533 E22.43345
G0 F3600 X92.34 Y115.533
G1 F1800 X101.01 Y124.203 E22.84126
G0 F3600 X101.575 Y124.203
G1 F1800 X92.906 Y115.533 E23.24905
G0 F3600 X93.471 Y115.533
G1 F1800 X102.141 Y124.203 E23.65686
G0 F3600 X102.707 Y124.203
G1 F1800 X94.037 Y115.533 E24.06467
G0 F3600 X94.603 Y115.533
G1 F1800 X103.272 Y124.203 E24.47246
G0 F3600 X103.838 Y124.203
G1 F1800 X95.168 Y115.533 E24.88027
G0 F3600 X95.734 Y115.533
G1 F1800 X104.404 Y124.203 E25.28808
G0 F3600 X104.97 Y124.203
G1 F1800 X96.3 Y115.533 E25.69589
G0 F3600 X96.865 Y115.533
G1 F1800 X105.535 Y124.203 E26.1037
G0 F3600 X106.101 Y124.203
G1 F1800 X97.431 Y115.533 E26.51151
G0 F3600 X97.997 Y115.533
G1 F1800 X106.667 Y124.203 E26.91932
G0 F3600 X107.232 Y124.203
G1 F1800 X98.562 Y115.533 E27.32713
G0 F3600 X99.128 Y115.533
G1 F1800 X107.798 Y124.203 E27.73494
G0 F3600 X108.364 Y124.203
G1 F1800 X99.694 Y115.533 E28.14275
G0 F3600 X100.259 Y115.533
G1 F1800 X108.929 Y124.203 E28.55056
G0 F3600 X109.495 Y124.203
G1 F1800 X100.825 Y115.533 E28.95837
G0 F3600 X101.391 Y115.533
G1 F1800 X110.061 Y124.203 E29.36618
G0 F3600 X110.626 Y124.203
G1 F1800 X101.957 Y115.533 E29.77397
G0 F3600 X102.522 Y115.533
G1 F1800 X111.192 Y124.203 E30.18178
G0 F3600 X111.758 Y124.203
G1 F1800 X103.088 Y115.533 E30.58959
G0 F3600 X103.654 Y115.533
G1 F1800 X112.323 Y124.203 E30.99737
G0 F3600 X112.889 Y124.203
G1 F1800 X104.219 Y115.533 E31.40518
G0 F3600 X104.785 Y115.533
G1 F1800 X113.455 Y124.203 E31.81299
G0 F3600 X114.02 Y124.203
G1 F1800 X105.351 Y115.533 E32.22078
G0 F3600 X105.916 Y115.533
G1 F1800 X114.586 Y124.203 E32.62859
G0 F3600 X115.152 Y124.203
G1 F1800 X106.482 Y115.533 E33.0364
G0 F3600 X107.048 Y115.533
G1 F1800 X115.718 Y124.203 E33.44421
G0 F3600 X116.283 Y124.203
G1 F1800 X107.613 Y115.533 E33.85202
G0 F3600 X108.179 Y115.533
G1 F1800 X116.849 Y124.203 E34.25983
G0 F3600 X117.415 Y124.203
G1 F1800 X108.745 Y115.533 E34.66764
G0 F3600 X109.31 Y115.533
G1 F1800 X117.98 Y124.203 E35.07545
G0 F3600 X118.546 Y124.203
G1 F1800 X113.777 Y119.433 E35.29979
G0 F3600 X113.638 Y119.295
G1 F1800 X109.876 Y115.533 E35.47675
G0 F3600 X110.442 Y115.533
G1 F1800 X113.638 Y118.729 E35.62708
G0 F3600 X113.638 Y118.163
G1 F1800 X111.007 Y115.533 E35.75081
G0 F3600 X111.573 Y115.533
G1 F1800 X113.638 Y117.598 E35.84794
G0 F3600 X113.638 Y117.032
G1 F1800 X112.139 Y115.533 E35.91845
G0 F3600 X112.705 Y115.533
G1 F1800 X113.638 Y116.466 E35.96233
G0 F3600 X113.638 Y115.901
G1 F1800 X113.27 Y115.533 E35.97964
G0 F3600 X114.342 Y119.433
G1 F1800 X119.112 Y124.203 E36.20401
G0 F3600 X119.677 Y124.203
G1 F1800 X114.908 Y119.433 E36.42835
G0 F3600 X115.474 Y119.433
G1 F1800 X120.243 Y124.203 E36.65269
G0 F3600 X120.809 Y124.203
G1 F1800 X116.039 Y119.433 E36.87706
G0 F3600 X116.605 Y119.433
G1 F1800 X121.374 Y124.203 E37.1014
G0 F3600 X121.94 Y124.203
G1 F1800 X117.171 Y119.433 E37.32574
G0 F3600 X117.736 Y119.433
G1 F1800 X122.506 Y124.203 E37.55011
G0 F3600 X123.071 Y124.203
G1 F1800 X118.302 Y119.433 E37.77445
G0 F3600 X118.868 Y119.433
G1 F1800 X123.637 Y124.203 E37.9988
G0 F3600 X124.203 Y124.203
G1 F1800 X119.433 Y119.433 E38.22316
G0 F3600 X119.999 Y119.433
G1 F1800 X124.768 Y124.203 E38.44751
G0 F3600 X125.334 Y124.203
G1 F1800 X120.565 Y119.433 E38.67185
G0 F3600 X121.13 Y119.433
G1 F1800 X125.571 Y123.874 E38.88074
G0 F3600 X125.571 Y123.308
G1 F1800 X121.217 Y118.954 E39.08554
G0 F3600 X121.217 Y118.388
G1 F1800 X125.571 Y122.743 E39.29036
G0 F3600 X125.571 Y122.177
G1 F1800 X121.217 Y117.823 E39.49516
G0 F3600 X121.217 Y117.257
G1 F1800 X125.571 Y121.611 E39.69996
G0 F3600 X125.571 Y121.046
G1 F1800 X121.217 Y116.691 E39.90478
G0 F3600 X121.217 Y116.126
G1 F1800 X125.571 Y120.48 E40.10958
G0 F3600 X125.571 Y119.914
G1 F1800 X121.217 Y115.56 E40.31438
G0 F3600 X121.217 Y114.994
G1 F1800 X125.571 Y119.349 E40.5192
G0 F3600 X125.571 Y118.783
G1 F1800 X121.217 Y114.428 E40.72402
G0 F3600 X121.217 Y113.863
G1 F1800 X125.571 Y118.217 E40.92882
G0 F3600 X125.571 Y117.651
G1 F1800 X121.217 Y113.297 E41.13362
G0 F3600 X121.217 Y112.731
G1 F1800 X125.571 Y117.086 E41.33844
G0 F3600 X125.571 Y116.52
G1 F1800 X121.217 Y112.166 E41.54324
G0 F3600 X121.217 Y111.6
G1 F1800 X125.571 Y115.954 E41.74804
G0 F3600 X125.571 Y115.389
G1 F1800 X121.217 Y111.034 E41.95286
G0 F3600 X121.217 Y110.469
G1 F1800 X125.571 Y114.823 E42.15766
G0 F3600 X125.571 Y114.257
G1 F1800 X121.217 Y109.903 E42.36246
G0 F3600 X121.217 Y109.337
G1 F1800 X125.571 Y113.692 E42.56728
G0 F3600 X125.571 Y113.126
G1 F1800 X121.217 Y108.772 E42.77208
G0 F3600 X121.217 Y108.206
G1 F1800 X125.571 Y112.56 E42.97688
G0 F3600 X125.571 Y111.995
G1 F1800 X121.217 Y107.64 E43.1817
G0 F3600 X121.217 Y107.075
G1 F1800 X125.571 Y111.429 E43.3865
G0 F3600 X125.571 Y110.863
G1 F1800 X121.217 Y106.509 E43.5913
G0 F3600 X121.217 Y105.943
G1 F1800 X125.571 Y110.298 E43.79612
G0 F3600 X125.571 Y109.732
G1 F1800 X121.217 Y105.378 E44.00092
G0 F3600 X121.217 Y104.812
G1 F1800 X125.571 Y109.166 E44.20572
G0 F3600 X125.571 Y108.6
G1 F1800 X121.217 Y104.246 E44.41052
G0 F3600 X121.217 Y103.68
G1 F1800 X125.571 Y108.035 E44.61534
G0 F3600 X125.571 Y107.469
G1 F1800 X121.217 Y103.115 E44.82014
G0 F3600 X121.217 Y102.549
G1 F1800 X125.571 Y106.903 E45.02494
G0 F3600 X125.571 Y106.338
G1 F1800 X121.217 Y101.983 E45.22976
G0 F3600 X121.217 Y101.418
G1 F1800 X125.571 Y105.772 E45.43456
G0 F3600 X125.571 Y105.206
G1 F1800 X121.217 Y100.852 E45.63936
G0 F3600 X121.217 Y100.286
G1 F1800 X125.571 Y104.641 E45.84418
G0 F3600 X125.571 Y104.075
G1 F1800 X121.217 Y99.721 E46.04898
G0 F3600 X121.217 Y99.155
G1 F1800 X125.628 Y103.566 E46.25646
G0 F3600 X126.193 Y103.566
G1 F1800 X121.423 Y98.796 E46.48083
G0 F3600 X121.989 Y98.796
G1 F1800 X126.759 Y103.566 E46.70519
G0 F3600 X127.325 Y103.566
G1 F1800 X122.555 Y98.796 E46.92956
G0 F3600 X123.12 Y98.796
G1 F1800 X127.89 Y103.566 E47.15392
G0 F3600 X128.456 Y103.566
G1 F1800 X123.686 Y98.796 E47.37829
G0 F3600 X124.252 Y98.796
G1 F1800 X129.022 Y103.566 E47.60266
G0 F3600 X129.587 Y103.566
G1 F1800 X124.817 Y98.796 E47.82702
G0 F3600 X125.383 Y98.796
G1 F1800 X130.153 Y103.566 E48.05139
G0 F3600 X130.719 Y103.566
G1 F1800 X125.949 Y98.796 E48.27575
G0 F3600 X126.514 Y98.796
G1 F1800 X131.284 Y103.566 E48.50012
G0 F3600 X131.85 Y103.566
G1 F1800 X127.08 Y98.796 E48.72449
G0 F3600 X127.646 Y98.796
G1 F1800 X132.416 Y103.566 E48.94885
G0 F3600 X132.982 Y103.566
G1 F1800 X128.211 Y98.796 E49.17324
G0 F3600 X128.777 Y98.796
G1 F1800 X138.269 Y108.288 E49.61972
G0 F3600 X138.269 Y108.854
G1 F1800 X133.501 Y104.085 E49.84401
G0 F3600 X133.501 Y104.651
G1 F1800 X138.27 Y109.42 E50.06833
G0 F3600 X138.27 Y109.986
G1 F1800 X133.501 Y105.216 E50.29268
G0 F3600 X133.501 Y105.782
G1 F1800 X138.27 Y110.551 E50.51699
G0 F3600 X138.27 Y111.117
G1 F1800 X133.501 Y106.348 E50.74131
G0 F3600 X133.501 Y106.913
G1 F1800 X138.27 Y111.683 E50.96566
G0 F3600 X138.27 Y112.248
G1 F1800 X133.501 Y107.479 E51.18998
G0 F3600 X133.501 Y108.045
G1 F1800 X138.27 Y112.814 E51.41429
G0 F3600 X138.271 Y113.381
G1 F1800 X133.501 Y108.61 E51.63868
G0 F3600 X133.501 Y109.176
G1 F1800 X138.271 Y113.946 E51.86305
G0 F3600 X138.271 Y114.512
G1 F1800 X133.501 Y109.742 E52.08742
G0 F3600 X133.501 Y110.307
G1 F1800 X138.271 Y115.078 E52.31181
G0 F3600 X138.271 Y115.643
G1 F1800 X133.501 Y110.873 E52.53617
G0 F3600 X133.501 Y111.439
G1 F1800 X138.271 Y116.209 E52.76054
G0 F3600 X138.271 Y116.775
G1 F1800 X133.501 Y112.005 E52.9849
G0 F3600 X133.501 Y112.57
G1 F1800 X138.271 Y117.34 E53.20927
G0 F3600 X138.218 Y117.854
G1 F1800 X133.501 Y113.136 E53.43117
G0 F3600 X133.501 Y113.702
G1 F1800 X137.653 Y117.854 E53.62646
G0 F3600 X137.087 Y117.854
G1 F1800 X133.501 Y114.267 E53.79516
G0 F3600 X133.501 Y114.833
G1 F1800 X136.521 Y117.854 E53.93724
G0 F3600 X135.956 Y117.854
G1 F1800 X133.501 Y115.399 E54.05271
G0 F3600 X133.501 Y115.964
G1 F1800 X135.39 Y117.854 E54.14159
G0 F3600 X134.824 Y117.854
G1 F1800 X133.501 Y116.53 E54.20384
G0 F3600 X133.501 Y117.096
G1 F1800 X134.259 Y117.854 E54.2395
G0 F3600 X133.693 Y117.854
G1 F1800 X133.501 Y117.661 E54.24855
G0 F3600 X138.269 Y107.722
G1 F1800 X129.343 Y98.796 E54.6684
G0 F3600 X129.908 Y98.796
G1 F1800 X138.269 Y107.157 E55.06168
G0 F3600 X138.269 Y106.591
G1 F1800 X130.474 Y98.796 E55.42833
G0 F3600 X131.04 Y98.796
G1 F1800 X138.269 Y106.025 E55.76836
G0 F3600 X138.269 Y105.46
G1 F1800 X131.606 Y98.796 E56.08179
G0 F3600 X132.171 Y98.796
G1 F1800 X138.269 Y104.894 E56.36862
G0 F3600 X138.266 Y104.325
G1 F1800 X132.757 Y98.816 E56.62775
G0 F3600 X133.367 Y98.86
G1 F1800 X138.211 Y103.704 E56.8556
G0 F3600 X138.082 Y103.009
G1 F1800 X134.059 Y98.987 E57.0448
G1 X133.989 Y98.917
G0 F3600 X134.912 Y99.274
G1 F1800 X137.791 Y102.152 E57.1802
G1 X137.861 Y102.222
G0 F3600 X94.787 Y124.203
G1 F1800 X86.117 Y115.533 E57.58801
G1 X86.047 Y115.463
;MESH:NONMESH
G0 F600 X86.047 Y115.463 Z0.4
G0 F3600 X84.138 Y105.546
;TIME_ELAPSED:65.757306
;LAYER:1
M140 S65
M106 S28.3
;TYPE:WALL-OUTER
;MESH:clip.STL
G1 F1800 X84.338 Y105.546 E57.59466
G1 X86.369 Y105.546 E57.66221
G1 X87.56 Y107.378 E57.73489
G1 X87.76 Y107.686 E57.7471
G1 X87.393 Y107.686 E57.75395
G1 X87.392 Y107.686 E57.75398
G1 X86.278 Y107.686 E57.79103
G1 X86.278 Y114.944 E58.03243
G1 X114.228 Y114.944 E58.96206
G1 X114.228 Y118.844 E59.09177
G1 X120.628 Y118.844 E59.30463
G1 X120.628 Y98.206 E59.99106
G1 X132.706 Y98.206 E60.39277
G1 X133.754 Y98.298 E60.42776
G1 X134.786 Y98.568 E60.46324
G1 X135.766 Y99.021 E60.49915
G1 X136.642 Y99.629 E60.53462
G1 X137.406 Y100.388 E60.57044
G1 X138.02 Y101.258 E60.60585
G1 X138.478 Y102.228 E60.64153
G1 X138.761 Y103.266 E60.67732
G1 X138.859 Y104.336 E60.71305
G1 X138.862 Y118.244 E61.17564
G1 X138.862 Y118.444 E61.18229
G1 X138.662 Y118.444 E61.18659
G1 X132.739 Y118.444 E61.38359
G1 X132.498 Y118.381 E61.39188
G1 X132.379 Y118.282 E61.39703
G1 X132.309 Y118.16 E61.40171
G1 X132.288 Y117.93 E61.40939
G1 X132.339 Y117.795 E61.41419
G1 X132.503 Y117.633 E61.42186
G1 X132.648 Y117.58 E61.42699
G1 X132.912 Y117.558 E61.4358
G1 X132.912 Y104.156 E61.88155
